symbolic/48x48/apps/bespoke_icon.svg

<svg xmlns="http://www.w3.org/2000/svg" width="48" height="48" version="1">
 <rect style="opacity:0.2" width="42" height="36" x="3" y="6" rx="2" ry="2"/>
 <rect style="fill:#2f8c9f" width="42" height="36" x="3" y="5" rx="2" ry="2"/>
 <path style="opacity:0.2" transform="matrix(1,0,0,0.96225044,0,1.2642469)" d="M 37,7.0000002 40,7 l 3,1e-7 L 41.5,9.5980764 40,12.196152 38.5,9.5980763 Z"/>
 <path style="fill:#70cbde" transform="matrix(1,0,0,0.96225044,0,0.26424694)" d="M 37,7.0000002 40,7 l 3,1e-7 L 41.5,9.5980764 40,12.196152 38.5,9.5980763 Z"/>
 <circle style="fill:#3f3f3f" cx="8" cy="10" r="3"/>
 <path style="opacity:0.3" d="M 3 14 L 3 39 C 3 40.108 3.892 41 5 41 L 43 41 C 44.108 41 45 40.108 45 39 L 45 14 L 3 14 z"/>
 <path style="opacity:0.2" d="m 18,17 v 20 h 3.128906 l 0.6875,-1.818359 h 0.273438 c 0.402614,0.467531 0.914888,0.892485 1.537109,1.273437 C 24.267476,36.818715 25.136335,37 26.234375,37 27.954637,37 29.346764,36.375659 30.408203,35.128906 31.469642,33.882153 32,32.047289 32,29.623047 32,27.21612 31.478685,25.098578 30.435547,23.869141 29.39241,22.622387 28.029362,21.998047 26.345703,21.998047 c -1.079738,0 -1.959594,0.209416 -2.636719,0.625 -0.677124,0.398269 -1.216526,0.891725 -1.61914,1.480469 h -0.164063 c 0.0366,-0.294371 0.07278,-0.703176 0.109375,-1.222657 0.0366,-0.51948 0.05469,-1.047187 0.05469,-1.583984 V 17 Z m 7.162109,8 c 0.899521,0 1.608253,0.378211 2.125,1.132812 0.535886,0.736196 0.802735,1.840107 0.802735,3.3125 0,1.472392 -0.258644,2.603121 -0.775391,3.394532 C 26.797707,33.612849 26.099133,34 25.21875,34 24.032147,34 23.20933,33.612849 22.75,32.839844 22.309809,32.048433 22.089844,30.926643 22.089844,29.472656 V 29.03125 c 0.01914,-1.343559 0.25942,-2.347191 0.71875,-3.009766 C 23.267924,25.340502 24.052061,25 25.162109,25 Z"/>
 <path style="fill:#f4f4f7" d="M 18 16 L 18 36 L 21.128906 36 L 21.816406 34.181641 L 22.089844 34.181641 C 22.492458 34.649172 23.004732 35.074126 23.626953 35.455078 C 24.267476 35.818715 25.136335 36 26.234375 36 C 27.954637 36 29.346764 35.375659 30.408203 34.128906 C 31.469642 32.882153 32 31.047289 32 28.623047 C 32 26.21612 31.478685 24.098578 30.435547 22.869141 C 29.39241 21.622387 28.029362 20.998047 26.345703 20.998047 C 25.265965 20.998047 24.386109 21.207463 23.708984 21.623047 C 23.03186 22.021316 22.492458 22.514772 22.089844 23.103516 L 21.925781 23.103516 C 21.962384 22.809145 21.998556 22.40034 22.035156 21.880859 C 22.071756 21.361379 22.089844 20.833672 22.089844 20.296875 L 22.089844 16 L 18 16 z M 25.162109 24 C 26.06163 24 26.770362 24.378211 27.287109 25.132812 C 27.822995 25.869008 28.089844 26.972919 28.089844 28.445312 C 28.089844 29.917704 27.8312 31.048433 27.314453 31.839844 C 26.797707 32.612849 26.099133 33 25.21875 33 C 24.032147 33 23.20933 32.612849 22.75 31.839844 C 22.309809 31.048433 22.089844 29.926643 22.089844 28.472656 L 22.089844 28.03125 C 22.108982 26.687691 22.349264 25.684059 22.808594 25.021484 C 23.267924 24.340502 24.052061 24 25.162109 24 z"/>
 <circle style="opacity:0.2" cx="24" cy="42" r="4"/>
 <circle style="fill:#3eb1c9" cx="24" cy="41" r="4"/>
 <path style="fill:#f4f4f7;opacity:0.1" d="M 5 5 C 3.892 5 3 5.892 3 7 L 3 8 C 3 6.892 3.892 6 5 6 L 43 6 C 44.108 6 45 6.892 45 8 L 45 7 C 45 5.892 44.108 5 43 5 L 5 5 z"/>
 <path style="opacity:0.2;fill:#f4f4f7" d="M 37 7 L 37.599609 8 L 40 8 L 42.400391 8 L 43 7 L 40 7 L 37 7 z"/>
 <path style="opacity:0.2;fill:#f4f4f7" d="M 24 37 A 4 4 0 0 0 20 41 A 4 4 0 0 0 20.035156 41.494141 A 4 4 0 0 1 24 38 A 4 4 0 0 1 27.964844 41.505859 A 4 4 0 0 0 28 41 A 4 4 0 0 0 24 37 z"/>
 <circle style="fill:#70cbde" cx="8" cy="10" r="2"/>
</svg>

<svg xmlns="http://www.w3.org/2000/svg" width="48" height="48" version="1"><rect style="opacity:.2" width="42" height="36" x="3" y="6" rx="2" ry="2"/><rect style="fill:#2f8c9f" width="42" height="36" x="3" y="5" rx="2" ry="2"/><path style="opacity:.2" transform="matrix(1 0 0 .96225 0 1.264)" d="M37 7h6l-1.5 2.598-1.5 2.598-1.5-2.598z"/><path style="fill:#70cbde" transform="matrix(1 0 0 .96225 0 .264)" d="M37 7h6l-1.5 2.598-1.5 2.598-1.5-2.598z"/><circle style="fill:#3f3f3f" cx="8" cy="10" r="3"/><path style="opacity:.3" d="M3 14v25c0 1.108.892 2 2 2h38c1.108 0 2-.892 2-2V14H3z"/><path style="opacity:.2" d="M18 17v20h3.129l.687-1.818h.274c.402.467.915.892 1.537 1.273.64.364 1.51.545 2.607.545 1.72 0 3.113-.624 4.174-1.871C31.47 33.882 32 32.047 32 29.623c0-2.407-.521-4.524-1.564-5.754-1.044-1.247-2.407-1.871-4.09-1.871-1.08 0-1.96.21-2.637.625-.677.398-1.217.892-1.62 1.48h-.163c.036-.294.073-.703.11-1.222.036-.52.054-1.047.054-1.584V17zm7.162 8c.9 0 1.608.378 2.125 1.133.536.736.803 1.84.803 3.312 0 1.473-.259 2.603-.776 3.395-.516.773-1.215 1.16-2.095 1.16-1.187 0-2.01-.387-2.469-1.16-.44-.792-.66-1.913-.66-3.367v-.442c.019-1.343.26-2.347.719-3.01.459-.68 1.243-1.021 2.353-1.021z"/><path style="fill:#f4f4f7" d="M18 16v20h3.129l.687-1.818h.274c.402.467.915.892 1.537 1.273.64.364 1.51.545 2.607.545 1.72 0 3.113-.624 4.174-1.871C31.47 32.882 32 31.047 32 28.623c0-2.407-.521-4.524-1.564-5.754-1.044-1.247-2.407-1.871-4.09-1.871-1.08 0-1.96.21-2.637.625-.677.398-1.217.892-1.62 1.48h-.163c.036-.294.073-.703.11-1.222.036-.52.054-1.047.054-1.584V16H18zm7.162 8c.9 0 1.608.378 2.125 1.133.536.736.803 1.84.803 3.312 0 1.473-.259 2.603-.776 3.395-.516.773-1.215 1.16-2.095 1.16-1.187 0-2.01-.387-2.469-1.16-.44-.792-.66-1.913-.66-3.367v-.442c.019-1.343.26-2.347.719-3.01.459-.68 1.243-1.021 2.353-1.021z"/><circle style="opacity:.2" cx="24" cy="42" r="4"/><circle style="fill:#3eb1c9" cx="24" cy="41" r="4"/><path style="fill:#f4f4f7;opacity:.1" d="M5 5c-1.108 0-2 .892-2 2v1c0-1.108.892-2 2-2h38c1.108 0 2 .892 2 2V7c0-1.108-.892-2-2-2H5z"/><path style="opacity:.2;fill:#f4f4f7" d="m37 7 .6 1h4.8l.6-1h-6zM24 37a4 4 0 0 0-4 4 4 4 0 0 0 .035.494A4 4 0 0 1 24 38a4 4 0 0 1 3.965 3.506A4 4 0 0 0 28 41a4 4 0 0 0-4-4z"/><circle style="fill:#70cbde" cx="8" cy="10" r="2"/></svg>
